X:1
T:Ich Will Alle Meine Tage
T:Ich Will Alle Meine Tage
T:Chorale
T:J.S. Bach
C:J.S. Bach
%%score 1 2 3 4
L:1/8
Q:1/4=76
M:4/4
K:C
V:1 treble transpose=-2 nm="B♭ Trumpet" snm="B♭ Tpt."
V:2 treble transpose=-2 nm="B♭ Trumpet" snm="B♭ Tpt."
V:3 treble transpose=-7 nm="Horn in F" snm="F Hn."
V:4 bass nm="Trombone" snm="Tbn."
V:1
[K:D] d2 e2 f2 e2 | d2 c2 B2 !fermata!A2 | d2 e2 f2 ef/g/ | f2 e>d d4 :| f2 g2 a2 g2 | %5
 f2 e2 !fermata!f4 | a2 a2 b2 a2 | g2 f2 !fermata!e4 | f2 a2 g2 fe | d2 e2 f4 | !fermata!d4 f2 a2 | %11
 g2 f2 e2 d2 | e4 !fermata!d4 |] %13
V:2
[K:D] A2 A2 A2 A2 | B2 E2 E2 !fermata!E2 | A2 Bc dA A2 | A2 A2 A4 :| A2 B=c/d/ c2 B2 | %5
 A2 GB/^A/ !fermata!B4 | A2 d2 d2 c2 | B2 A^G !fermata!A4 | A2 dc Bc d2 | B2 B2 (c2 F2) | %10
 !fermata!F4 AB =c2 | Bc d2 A2 A2 | A4 !fermata!A4 |] %13
V:3
[K:G] B2 F2 G2 A2 | B^c d2 dc !fermata!F2 | G2 c2 dG A2 | AGGF !fermata!B4 :| G2 G2 G2 GA | %5
 BEEF !fermata!^G4 | GA B2 cB A2 | G2 G2 !fermata!F4 | GA B2 c2 dD | EBAG F4 | %10
 !fermata!E4 =F2 B,2 | C2 DE F2 G2 | (G2 F2) !fermata!B4 |] %13
V:4
 C,2 G,2 C2 B,2 | A,2 G,2 D,2 !fermata!G,2 | E,2 D,2 C,2 B,,2 | C,2 G,,2 !fermata!C,4 :| %4
 C2 A,2 E,2 F,2 | ^C,2 D,2 !fermata!A,,4 | E,2 C,2 F,2 G,2 | A,B, C2 !fermata!G,4 | %8
 C2 C,2 D,2 E,2 | F,2 ^F,2 (G,2 ^G,2) | !fermata!A,4 G,2 C,2 | D,2 E,F, G,F,E,C, | %12
 G,,4 !fermata!C,4 |] %13

